X:45
T:Chattering Magpie, The
R:reel
Z:Julie Ross
M:C|
K:G
BGAF DGGA|B2ge fdcA|BGAF DGGE|FGAB c2dc|
BGAF DGGA|B2ge fdcA|BGAF DGGG|FGAB c2Bc||
dggf g2bg|dg~g2 fgaf|dggf g2ga|bgag fdcA|
dggf g2bg|dgge fgaf|dggf g3a|b2ag fdcA||
